alpha-z.svg

<svg fill="currentColor" viewBox="0 0 24 24"><path d="M9 7v2h4l-4 6v2h6v-2h-4l4-6V7z"/></svg>

<svg  viewBox="0 0 24 24" fill="currentColor"><path  d="M9,7V9H13L9,15V17H15V15H11L15,9V7H9Z"/></svg>
